humanity-icon-theme/Humanity/apps/128/user-info.svg

<?xml version="1.0" encoding="UTF-8" standalone="no"?>
<!-- Created with Inkscape (http://www.inkscape.org/) -->
<svg
   xmlns:svg="http://www.w3.org/2000/svg"
   xmlns="http://www.w3.org/2000/svg"
   xmlns:xlink="http://www.w3.org/1999/xlink"
   version="1.0"
   width="128"
   height="128"
   id="svg3385">
  <defs
     id="defs3387">
    <radialGradient
       cx="32"
       cy="41.5"
       r="21"
       fx="32"
       fy="41.5"
       id="radialGradient2587"
       xlink:href="#linearGradient5060"
       gradientUnits="userSpaceOnUse"
       gradientTransform="matrix(2.2857141,0,0,0.7619048,-11.142858,72.381012)" />
    <linearGradient
       x1="30"
       y1="25.084745"
       x2="30"
       y2="45"
       id="linearGradient2584"
       xlink:href="#linearGradient3785"
       gradientUnits="userSpaceOnUse"
       gradientTransform="matrix(2.6774204,0,0,2.6666671,-18.32261,-3.1666129)" />
    <radialGradient
       cx="24.999998"
       cy="28.659998"
       r="16"
       fx="24.999998"
       fy="28.659998"
       id="radialGradient2582"
       xlink:href="#linearGradient6954"
       gradientUnits="userSpaceOnUse"
       gradientTransform="matrix(3.5141143,0,0,0.9953788,-39.239951,50.972509)" />
    <linearGradient
       x1="29.99999"
       y1="44.324059"
       x2="29.99999"
       y2="5.7667112"
       id="linearGradient3383"
       xlink:href="#linearGradient3341"
       gradientUnits="userSpaceOnUse"
       gradientTransform="matrix(2.6774204,0,0,2.6666671,-24.32261,-3.1666129)" />
    <linearGradient
       id="linearGradient3785">
      <stop
         id="stop3787"
         style="stop-color:#bdbdbd;stop-opacity:1"
         offset="0" />
      <stop
         id="stop3789"
         style="stop-color:#8c8c8c;stop-opacity:1"
         offset="1" />
    </linearGradient>
    <linearGradient
       x1="30"
       y1="5"
       x2="30"
       y2="44.678879"
       id="linearGradient2576"
       xlink:href="#linearGradient3785"
       gradientUnits="userSpaceOnUse"
       gradientTransform="matrix(2.6666657,0,0,2.6503058,-18.499971,-3.0766069)" />
    <linearGradient
       id="linearGradient6954">
      <stop
         id="stop6960"
         style="stop-color:#f5f5f5;stop-opacity:1"
         offset="0" />
      <stop
         id="stop6962"
         style="stop-color:#d2d2d2;stop-opacity:1"
         offset="1" />
    </linearGradient>
    <radialGradient
       cx="26.375898"
       cy="12.31301"
       r="8"
       fx="26.375898"
       fy="12.31301"
       id="radialGradient2574"
       xlink:href="#linearGradient6954"
       gradientUnits="userSpaceOnUse"
       gradientTransform="matrix(4.3737719,-0.351384,0.3416368,4.2004284,-67.556891,-16.930882)" />
    <linearGradient
       x1="22"
       y1="39"
       x2="17"
       y2="37.4375"
       id="linearGradient2571"
       xlink:href="#linearGradient5060"
       gradientUnits="userSpaceOnUse"
       gradientTransform="matrix(2.6774205,0,0,2.6666672,-18.322611,-3.1666139)" />
    <linearGradient
       x1="38"
       y1="39"
       x2="43"
       y2="38.599998"
       id="linearGradient2568"
       xlink:href="#linearGradient5060"
       gradientUnits="userSpaceOnUse"
       gradientTransform="matrix(2.6774205,0,0,2.6666672,-18.322611,-3.1666139)" />
    <linearGradient
       id="linearGradient5060">
      <stop
         id="stop5062"
         style="stop-color:#000000;stop-opacity:1"
         offset="0" />
      <stop
         id="stop5064"
         style="stop-color:#000000;stop-opacity:0"
         offset="1" />
    </linearGradient>
    <radialGradient
       cx="30"
       cy="33.1875"
       r="4.6875"
       fx="30"
       fy="33.1875"
       id="radialGradient2565"
       xlink:href="#linearGradient5060"
       gradientUnits="userSpaceOnUse"
       gradientTransform="matrix(4.0910267,-1.8839322e-6,5.7052183e-7,1.228977,-60.730815,36.046782)" />
    <linearGradient
       x1="29.999992"
       y1="3.0410755"
       x2="29.999992"
       y2="27.956825"
       id="linearGradient3371"
       xlink:href="#linearGradient3341"
       gradientUnits="userSpaceOnUse"
       gradientTransform="matrix(2.7846237,0,0,2.7470504,-28.038696,-4.7058576)" />
    <linearGradient
       x1="18.379412"
       y1="44.980297"
       x2="18.379412"
       y2="3.0816143"
       id="linearGradient2559"
       xlink:href="#linearGradient2490-182-124"
       gradientUnits="userSpaceOnUse"
       gradientTransform="matrix(1.376344,0,0,1.376344,63.467741,62.467804)" />
    <linearGradient
       id="linearGradient3242-187-536">
      <stop
         id="stop2778"
         style="stop-color:#8badea;stop-opacity:1"
         offset="0" />
      <stop
         id="stop2780"
         style="stop-color:#6396cd;stop-opacity:1"
         offset="0.26238" />
      <stop
         id="stop2782"
         style="stop-color:#3b7caf;stop-opacity:1"
         offset="0.66093999" />
      <stop
         id="stop2784"
         style="stop-color:#194c70;stop-opacity:1"
         offset="1" />
    </linearGradient>
    <radialGradient
       cx="23.895569"
       cy="3.9900031"
       r="20.397499"
       fx="23.895569"
       fy="3.9900031"
       id="radialGradient2557"
       xlink:href="#linearGradient3242-187-536"
       gradientUnits="userSpaceOnUse"
       gradientTransform="matrix(0,3.2848616,-4.3359589,0,113.80049,-13.107155)" />
    <linearGradient
       id="linearGradient3341">
      <stop
         id="stop3343"
         style="stop-color:#ffffff;stop-opacity:1"
         offset="0" />
      <stop
         id="stop3345"
         style="stop-color:#ffffff;stop-opacity:0"
         offset="1" />
    </linearGradient>
    <linearGradient
       x1="63.397362"
       y1="-12.489107"
       x2="63.397362"
       y2="5.4675598"
       id="linearGradient2554"
       xlink:href="#linearGradient3341"
       gradientUnits="userSpaceOnUse"
       gradientTransform="matrix(3.0873016,0,0,3.0872319,-95.53142,106.33881)" />
    <linearGradient
       id="linearGradient2490-182-124">
      <stop
         id="stop2788"
         style="stop-color:#1f4b6a;stop-opacity:1"
         offset="0" />
      <stop
         id="stop2790"
         style="stop-color:#4083c2;stop-opacity:1"
         offset="1" />
    </linearGradient>
    <linearGradient
       x1="90.5"
       y1="123.88018"
       x2="90.5"
       y2="67.015434"
       id="linearGradient3367"
       xlink:href="#linearGradient2490-182-124"
       gradientUnits="userSpaceOnUse"
       gradientTransform="translate(6,0)" />
  </defs>
  <g
     id="layer1">
    <path
       d="M 110,104.00006 C 110,112.83662 88.509664,120.00006 62,120.00006 C 35.490336,120.00006 14,112.83662 14,104.00006 C 14,95.163504 35.490336,88.000061 62,88.000061 C 88.509664,88.000061 110,95.163504 110,104.00006 z"
       id="path3823"
       style="opacity:0.7;fill:url(#radialGradient2587);fill-opacity:1;stroke:none" />
    <path
       d="M 49.951609,51.500062 C 51.183798,57.304677 51.871565,61.695451 50.871974,67.500065 C 43.078824,73.939735 23.14753,76.8334 23.177406,83.500067 L 20.499985,103.50007 C 20.499985,110.12749 39.080173,115.50007 62,115.50007 C 84.919828,115.50007 103.50002,110.12749 103.50002,103.50007 L 100.8226,83.500067 C 100.79082,77.794298 80.741944,74.166732 73.04436,67.500065 C 72.386855,62.112497 72.910247,56.887628 74.048392,51.500062 L 49.951609,51.500062 z"
       id="path3766"
       style="fill:url(#radialGradient2582);fill-opacity:1;stroke:url(#linearGradient2584);stroke-width:1;stroke-miterlimit:4;stroke-dasharray:none;stroke-opacity:1" />
    <path
       d="M 45.15625,52.53125 C 46.221497,57.75465 46.856105,62.171701 45.90625,67.6875 C 45.86017,67.934034 45.727095,68.155825 45.53125,68.3125 C 41.35641,71.762269 34.381013,74.028848 28.46875,76.375 C 25.512618,77.548076 22.828831,78.742037 20.96875,79.96875 C 19.108669,81.195463 18.213619,82.354948 18.21875,83.5 C 18.22124,83.541629 18.22124,83.583371 18.21875,83.625 L 15.53125,103.5 C 15.53125,103.50869 15.531156,103.52255 15.53125,103.53125 C 15.543847,104.69241 16.404909,105.98702 18.34375,107.3125 C 20.297124,108.64791 23.250718,109.90269 26.9375,110.96875 C 34.311063,113.10086 44.621859,114.46875 56,114.46875 C 67.378141,114.46875 77.688937,113.10086 85.0625,110.96875 C 88.749282,109.90269 91.702876,108.64791 93.65625,107.3125 C 95.59509,105.98702 96.456153,104.69241 96.46875,103.53125 L 96.46875,103.5 L 93.78125,83.625 C 93.77876,83.583371 93.77876,83.541629 93.78125,83.5 C 93.778983,83.092947 93.584548,82.659117 93.125,82.125 C 92.665452,81.590883 91.947584,80.995533 91,80.40625 C 89.104831,79.227684 86.383205,78.065296 83.40625,76.84375 C 77.45234,74.400658 70.461476,71.8475 66.34375,68.28125 C 66.152993,68.111723 66.030746,67.878342 66,67.625 C 65.375954,62.511563 65.865882,57.554483 66.84375,52.53125 L 45.15625,52.53125 z"
       transform="translate(6,0)"
       id="path3381"
       style="opacity:0.4;fill:none;fill-opacity:1;stroke:url(#linearGradient3383);stroke-width:1;stroke-miterlimit:4;stroke-dasharray:none;stroke-opacity:1" />
    <path
       d="M 61.499999,11.500074 C 50.454306,11.500074 41.500007,19.806152 41.500007,30.052215 C 41.586568,33.84408 41.912195,38.348675 44.166673,48.604356 C 45.500005,52.579815 57.392696,63.181038 57.500001,64.50619 C 60.085787,65.831342 64.166665,65.831342 66.833331,64.50619 C 66.833331,63.181038 77.499995,52.579815 78.833327,48.604356 C 81.370327,37.945645 81.363918,34.027674 81.499993,30.052215 C 81.499993,19.806152 72.545692,11.500074 61.499999,11.500074 z"
       id="path3764"
       style="fill:url(#radialGradient2574);fill-opacity:1;stroke:url(#linearGradient2576);stroke-width:1;stroke-miterlimit:4;stroke-dasharray:none;stroke-opacity:1" />
    <path
       d="M 37.903218,112.0334 C 31.578216,106.74755 34.594276,95.012442 35.225798,87.500069 C 32.548377,92.833403 32.548377,108.8334 27.193536,108.8334 C 30.841815,110.05622 34.555267,111.40884 37.903218,112.0334 z"
       id="path3848"
       style="opacity:0.3;fill:url(#linearGradient2571);fill-opacity:1;stroke:none" />
    <path
       d="M 86.096786,112.0334 C 92.38885,107.38342 89.193821,94.737623 88.774206,87.500069 C 91.451628,92.833403 91.451628,108.8334 96.806468,108.8334 C 93.158189,110.05622 89.444737,111.40884 86.096786,112.0334 z"
       id="path3850"
       style="opacity:0.3;fill:url(#linearGradient2568);fill-opacity:1;stroke:none" />
    <path
       d="M 49.449593,68.833398 C 51.287115,73.486085 56.193772,76.8334 62.000001,76.8334 C 67.806232,76.8334 72.712889,73.486085 74.550411,68.833398 L 49.449593,68.833398 z"
       id="path3833"
       style="opacity:0.2;fill:url(#radialGradient2565);fill-opacity:1;stroke:none" />
    <path
       d="M 55.5,12.46875 C 45.060949,12.46875 36.772338,20.127197 36.71875,29.53125 C 36.71854,29.541666 36.71854,29.552084 36.71875,29.5625 C 36.717639,29.514551 36.71682,29.573545 36.71875,29.65625 C 36.808166,33.462196 37.168892,37.953461 39.4375,48.25 C 39.442522,48.303019 39.452994,48.355378 39.46875,48.40625 C 39.609516,48.736909 39.828103,49.051339 40.21875,49.625 C 40.609397,50.198661 41.140796,50.920413 41.78125,51.6875 C 43.081962,53.245395 44.674774,54.97961 46.3125,56.6875 C 47.94655,58.391565 49.60886,60.083082 50.84375,61.40625 C 51.450826,62.056729 51.944833,62.651394 52.375,63.1875 C 52.292333,63.084509 52.279547,63.110843 52.4375,63.3125 C 52.526552,63.426234 52.645612,63.512823 52.78125,63.5625 C 54.678049,64.297984 57.496886,64.28663 59.5,63.5625 C 59.651029,63.509696 59.78202,63.411453 59.875,63.28125 C 60.273337,62.71094 60.692581,62.104342 61.21875,61.46875 C 62.31552,60.14389 63.745064,58.554106 65.21875,56.84375 C 66.690686,55.135423 68.246451,53.285387 69.4375,51.71875 C 70.577718,50.218976 71.27012,49.124972 71.53125,48.5 C 71.545117,48.459273 71.55557,48.417462 71.5625,48.375 C 71.572417,48.334516 71.559369,48.321439 71.5625,48.28125 C 74.140735,37.503172 74.141199,33.776536 74.28125,29.65625 C 74.28146,29.645834 74.28146,29.635416 74.28125,29.625 C 74.281254,29.598803 74.281453,29.566794 74.28125,29.53125 C 74.227688,20.127192 65.939053,12.46875 55.5,12.46875 z"
       transform="translate(6,0)"
       id="path3369"
       style="opacity:0.7;fill:none;stroke:url(#linearGradient3371);stroke-width:1.00689924;stroke-miterlimit:4;stroke-dasharray:none;stroke-opacity:1" />
    <path
       d="M 96.500005,67.500062 C 81.050569,67.500062 68.5,80.050626 68.5,95.500061 C 68.5,110.94949 81.050569,123.50007 96.500005,123.50006 C 111.94943,123.50006 124.50002,110.94949 124.5,95.500061 C 124.5,80.050626 111.94943,67.500062 96.500005,67.500062 z"
       id="path2555"
       style="fill:url(#radialGradient2557);fill-opacity:1;stroke:url(#linearGradient2559);stroke-width:1;stroke-linecap:round;stroke-linejoin:round;stroke-miterlimit:4;stroke-dasharray:none;stroke-dashoffset:0;stroke-opacity:1" />
    <path
       d="M 123.5,95.499102 C 123.5,110.41127 111.41078,122.50005 96.500343,122.50005 C 81.588518,122.50005 69.499999,110.41114 69.499999,95.499102 C 69.499999,80.587616 81.588518,68.50005 96.500343,68.50005 C 111.41078,68.50005 123.5,80.587616 123.5,95.499102 L 123.5,95.499102 z"
       id="path2463"
       style="opacity:0.4;fill:none;stroke:url(#linearGradient2554);stroke-width:0.99999994;stroke-miterlimit:4;stroke-dasharray:none;stroke-opacity:1" />
    <path
       d="M 89,94.107098 C 89.356885,95.068785 89.758587,95.848307 90.614248,94.782419 C 91.67508,94.156774 95.229533,91.414379 94.873867,94.100617 C 93.735733,99.071331 92.350371,103.98978 91.291104,108.97581 C 90.183496,111.70589 92.698666,114.17536 95.324686,112.39997 C 98.115983,111.25936 100.51788,109.40148 102.97169,107.69718 C 102.63688,106.88327 102.41373,105.71409 101.48863,106.77851 C 100.27392,107.32502 97.620864,109.90164 97.127977,107.77651 C 98.14832,102.39411 100.03878,97.210972 101.24721,91.871498 C 102.35926,89.416422 100.54305,86.314341 97.824392,88.345214 C 94.567368,89.751341 91.843641,92.048304 89,94.107098 z M 101.08787,76.004278 C 97.764738,75.829466 96.027294,81.139564 99.18524,82.592646 C 101.74726,83.63416 104.53684,81.029475 103.91095,78.426796 C 103.71671,77.071558 102.48922,75.958689 101.08787,76.004278 L 101.08787,76.004278 z"
       id="path2589"
       style="font-size:40px;font-style:normal;font-variant:normal;font-weight:bold;font-stretch:normal;text-align:start;line-height:100%;writing-mode:lr-tb;text-anchor:start;fill:url(#linearGradient3367);fill-opacity:1;stroke:none;font-family:URW Palladio L;-inkscape-font-specification:URW Palladio L Bold" />
    <path
       d="M 89,95.107097 C 89.356885,96.068784 89.758587,96.848306 90.614248,95.782418 C 91.67508,95.156773 95.229533,92.414378 94.873867,95.100616 C 93.735733,100.07133 92.350371,104.98978 91.291104,109.97581 C 90.183496,112.70589 92.698666,115.17536 95.324686,113.39997 C 98.115983,112.25936 100.51788,110.40148 102.97169,108.69718 C 102.63688,107.88327 102.41373,106.71409 101.48863,107.77851 C 100.27392,108.32502 97.620864,110.90164 97.127977,108.77651 C 98.14832,103.39411 100.03878,98.210971 101.24721,92.871497 C 102.35926,90.416421 100.54305,87.31434 97.824392,89.345213 C 94.567368,90.75134 91.843641,93.048303 89,95.107097 z M 101.08787,77.004277 C 97.764738,76.829465 96.027294,82.139563 99.18524,83.592645 C 101.74726,84.634159 104.53684,82.029474 103.91095,79.426795 C 103.71671,78.071557 102.48922,76.958688 101.08787,77.004277 L 101.08787,77.004277 z"
       id="path3536"
       style="font-size:40px;font-style:normal;font-variant:normal;font-weight:bold;font-stretch:normal;text-align:start;line-height:100%;writing-mode:lr-tb;text-anchor:start;fill:#ffffff;fill-opacity:1;stroke:none;font-family:URW Palladio L;-inkscape-font-specification:URW Palladio L Bold" />
  </g>
</svg>

<?xml version="1.0" encoding="UTF-8" standalone="no"?>
<!-- Created with Inkscape (http://www.inkscape.org/) -->
<svg id="svg3385" xmlns="http://www.w3.org/2000/svg" height="128" width="128" version="1.0" xmlns:xlink="http://www.w3.org/1999/xlink">
 <defs id="defs3387">
  <radialGradient id="radialGradient2587" xlink:href="#linearGradient5060" gradientUnits="userSpaceOnUse" cy="41.5" cx="32" gradientTransform="matrix(2.2857 0 0 .76190 -11.143 72.381)" r="21"/>
  <linearGradient id="linearGradient2584" y2="45" xlink:href="#linearGradient3785" gradientUnits="userSpaceOnUse" x2="30" gradientTransform="matrix(2.6774 0 0 2.6667 -18.323 -3.1666)" y1="25.085" x1="30"/>
  <radialGradient id="radialGradient2582" xlink:href="#linearGradient6954" gradientUnits="userSpaceOnUse" cy="28.66" cx="25" gradientTransform="matrix(3.5141 0 0 .99538 -39.24 50.973)" r="16"/>
  <linearGradient id="linearGradient3383" y2="5.7667" xlink:href="#linearGradient3341" gradientUnits="userSpaceOnUse" x2="30" gradientTransform="matrix(2.6774 0 0 2.6667 -24.323 -3.1666)" y1="44.324" x1="30"/>
  <linearGradient id="linearGradient3785">
   <stop id="stop3787" style="stop-color:#bdbdbd" offset="0"/>
   <stop id="stop3789" style="stop-color:#8c8c8c" offset="1"/>
  </linearGradient>
  <linearGradient id="linearGradient2576" y2="44.679" xlink:href="#linearGradient3785" gradientUnits="userSpaceOnUse" x2="30" gradientTransform="matrix(2.6667 0 0 2.6503 -18.5 -3.0766)" y1="5" x1="30"/>
  <linearGradient id="linearGradient6954">
   <stop id="stop6960" style="stop-color:#f5f5f5" offset="0"/>
   <stop id="stop6962" style="stop-color:#d2d2d2" offset="1"/>
  </linearGradient>
  <radialGradient id="radialGradient2574" xlink:href="#linearGradient6954" gradientUnits="userSpaceOnUse" cy="12.313" cx="26.376" gradientTransform="matrix(4.3738 -.35138 .34164 4.2004 -67.557 -16.931)" r="8"/>
  <linearGradient id="linearGradient2571" y2="37.438" xlink:href="#linearGradient5060" gradientUnits="userSpaceOnUse" x2="17" gradientTransform="matrix(2.6774 0 0 2.6667 -18.323 -3.1666)" y1="39" x1="22"/>
  <linearGradient id="linearGradient2568" y2="38.6" xlink:href="#linearGradient5060" gradientUnits="userSpaceOnUse" x2="43" gradientTransform="matrix(2.6774 0 0 2.6667 -18.323 -3.1666)" y1="39" x1="38"/>
  <linearGradient id="linearGradient5060">
   <stop id="stop5062" offset="0"/>
   <stop id="stop5064" style="stop-opacity:0" offset="1"/>
  </linearGradient>
  <radialGradient id="radialGradient2565" xlink:href="#linearGradient5060" gradientUnits="userSpaceOnUse" cy="33.188" cx="30" gradientTransform="matrix(4.091 -.0000018839 5.7052e-7 1.229 -60.731 36.047)" r="4.6875"/>
  <linearGradient id="linearGradient3371" y2="27.957" xlink:href="#linearGradient3341" gradientUnits="userSpaceOnUse" x2="30" gradientTransform="matrix(2.7846 0 0 2.7471 -28.039 -4.7059)" y1="3.0411" x1="30"/>
  <linearGradient id="linearGradient2559" y2="3.0816" xlink:href="#linearGradient2490-182-124" gradientUnits="userSpaceOnUse" x2="18.379" gradientTransform="matrix(1.3763 0 0 1.3763 63.468 62.468)" y1="44.98" x1="18.379"/>
  <radialGradient id="radialGradient2557" gradientUnits="userSpaceOnUse" cy="3.99" cx="23.896" gradientTransform="matrix(0 3.2849 -4.336 0 113.8 -13.107)" r="20.397">
   <stop id="stop2778" style="stop-color:#8badea" offset="0"/>
   <stop id="stop2780" style="stop-color:#6396cd" offset=".26238"/>
   <stop id="stop2782" style="stop-color:#3b7caf" offset=".66094"/>
   <stop id="stop2784" style="stop-color:#194c70" offset="1"/>
  </radialGradient>
  <linearGradient id="linearGradient3341">
   <stop id="stop3343" style="stop-color:#fff" offset="0"/>
   <stop id="stop3345" style="stop-color:#fff;stop-opacity:0" offset="1"/>
  </linearGradient>
  <linearGradient id="linearGradient2554" y2="5.4676" xlink:href="#linearGradient3341" gradientUnits="userSpaceOnUse" x2="63.397" gradientTransform="matrix(3.0873 0 0 3.0872 -95.531 106.34)" y1="-12.489" x1="63.397"/>
  <linearGradient id="linearGradient2490-182-124">
   <stop id="stop2788" style="stop-color:#1f4b6a" offset="0"/>
   <stop id="stop2790" style="stop-color:#4083c2" offset="1"/>
  </linearGradient>
  <linearGradient id="linearGradient3367" y2="67.015" xlink:href="#linearGradient2490-182-124" gradientUnits="userSpaceOnUse" x2="90.5" gradientTransform="translate(6)" y1="123.88" x1="90.5"/>
 </defs>
 <g id="layer1">
  <path id="path3823" style="opacity:.7;fill:url(#radialGradient2587)" d="m110 104c0 8.84-21.49 16-48 16s-48-7.16-48-16c0-8.836 21.49-16 48-16s48 7.164 48 16z"/>
  <path id="path3766" style="stroke:url(#linearGradient2584);fill:url(#radialGradient2582)" d="m49.952 51.5c1.232 5.805 1.92 10.195 0.92 16-7.793 6.44-27.724 9.333-27.695 16l-2.677 20c0 6.63 18.58 12 41.5 12s41.5-5.37 41.5-12l-2.68-20c-0.03-5.706-20.078-9.333-27.776-16-0.657-5.388-0.134-10.612 1.004-16h-24.096z"/>
  <path id="path3381" style="opacity:.4;stroke:url(#linearGradient3383);fill:none" d="m45.156 52.531c1.065 5.224 1.7 9.641 0.75 15.157-0.046 0.246-0.179 0.468-0.375 0.624-4.175 3.45-11.15 5.717-17.062 8.063-2.956 1.173-5.64 2.367-7.5 3.594-1.86 1.226-2.755 2.386-2.75 3.531 0.002 0.042 0.002 0.083 0 0.125l-2.688 19.875v0.03c0.013 1.16 0.874 2.46 2.813 3.78 1.953 1.34 4.907 2.59 8.594 3.66 7.373 2.13 17.684 3.5 29.062 3.5s21.689-1.37 29.062-3.5c3.687-1.07 6.641-2.32 8.594-3.66 1.939-1.32 2.8-2.62 2.813-3.78v-0.03l-2.688-19.875c-0.002-0.042-0.002-0.083 0-0.125-0.002-0.407-0.196-0.841-0.656-1.375s-1.177-1.129-2.125-1.719c-1.895-1.178-4.617-2.341-7.594-3.562-5.954-2.443-12.945-4.996-17.062-8.563-0.191-0.169-0.313-0.403-0.344-0.656-0.624-5.113-0.134-10.071 0.844-15.094h-21.688z" transform="translate(6)"/>
  <path id="path3764" style="stroke:url(#linearGradient2576);fill:url(#radialGradient2574)" d="m61.5 11.5c-11.046 0-20 8.306-20 18.552 0.087 3.792 0.412 8.297 2.667 18.552 1.333 3.976 13.226 14.577 13.333 15.902 2.586 1.325 6.667 1.325 9.333 0 0-1.325 10.667-11.926 12-15.902 2.537-10.658 2.531-14.576 2.667-18.552 0-10.246-8.954-18.552-20-18.552z"/>
  <path id="path3848" style="opacity:.3;fill:url(#linearGradient2571)" d="m37.903 112.03c-6.325-5.28-3.309-17.018-2.677-24.53-2.678 5.333-2.678 21.33-8.032 21.33 3.648 1.23 7.361 2.58 10.709 3.2z"/>
  <path id="path3850" style="opacity:.3;fill:url(#linearGradient2568)" d="m86.097 112.03c6.292-4.65 3.097-17.292 2.677-24.53 2.678 5.333 2.678 21.33 8.032 21.33-3.648 1.23-7.361 2.58-10.709 3.2z"/>
  <path id="path3833" style="opacity:.2;fill:url(#radialGradient2565)" d="m49.45 68.833c1.837 4.653 6.744 8 12.55 8s10.713-3.347 12.55-8h-25.1z"/>
  <path id="path3369" style="opacity:.7;stroke:url(#linearGradient3371);stroke-width:1.0069;fill:none" d="m55.5 12.469c-10.439 0-18.728 7.658-18.781 17.062v0.031c-0.001-0.047-0.002 0.012 0 0.094 0.089 3.806 0.45 8.297 2.719 18.594 0.005 0.053 0.015 0.105 0.031 0.156 0.141 0.331 0.359 0.645 0.75 1.219 0.39 0.574 0.922 1.295 1.562 2.063 1.301 1.557 2.894 3.292 4.531 5 1.635 1.704 3.297 3.395 4.532 4.718 0.607 0.651 1.101 1.245 1.531 1.782-0.083-0.103-0.095-0.077 0.063 0.124 0.089 0.114 0.208 0.201 0.343 0.25 1.897 0.736 4.716 0.725 6.719 0 0.151-0.052 0.282-0.151 0.375-0.281 0.398-0.57 0.818-1.177 1.344-1.812 1.097-1.325 2.526-2.915 4-4.625 1.472-1.709 3.027-3.559 4.219-5.125 1.14-1.5 1.832-2.594 2.093-3.219 0.014-0.041 0.025-0.083 0.031-0.125 0.01-0.04-0.003-0.054 0-0.094 2.579-10.778 2.579-14.504 2.719-18.625v-0.031-0.094c-0.053-9.404-8.342-17.062-18.781-17.062z" transform="translate(6)"/>
  <path id="path2555" style="stroke-linejoin:round;stroke:url(#linearGradient2559);stroke-linecap:round;fill:url(#radialGradient2557)" d="m96.5 67.5c-15.449 0-28 12.551-28 28 0 15.45 12.551 28 28 28 15.45 0 28-12.55 28-28 0-15.449-12.55-28-28-28z"/>
  <path id="path2463" style="opacity:.4;stroke:url(#linearGradient2554);fill:none" d="m123.5 95.499c0 14.911-12.09 27.001-27 27.001-14.911 0-27-12.09-27-27.001s12.089-26.999 27-26.999c14.91 0 27 12.088 27 26.999z"/>
  <path id="path2589" style="fill:url(#linearGradient3367)" d="m89 94.107c0.357 0.962 0.759 1.741 1.614 0.675 1.061-0.625 4.616-3.368 4.26-0.681-1.138 4.97-2.524 9.889-3.583 14.879-1.108 2.73 1.408 5.2 4.034 3.42 2.791-1.14 5.195-3 7.645-4.7-0.33-0.82-0.56-1.99-1.48-0.92-1.22 0.55-3.869 3.12-4.362 1 1.02-5.39 2.912-10.569 4.122-15.909 1.11-2.455-0.71-5.557-3.426-3.526-3.257 1.406-5.98 3.703-8.824 5.762zm12.09-18.103c-3.325-0.175-5.063 5.136-1.905 6.589 2.565 1.041 5.355-1.564 4.725-4.166-0.19-1.355-1.42-2.468-2.82-2.423z"/>
  <path id="path3536" style="fill:#fff" d="m89 95.107c0.357 0.962 0.759 1.741 1.614 0.675 1.061-0.625 4.616-3.368 4.26-0.681-1.138 4.969-2.524 9.889-3.583 14.879-1.108 2.73 1.408 5.2 4.034 3.42 2.791-1.14 5.195-3 7.645-4.7-0.33-0.82-0.56-1.99-1.48-0.92-1.22 0.55-3.869 3.12-4.362 1 1.02-5.39 2.912-10.569 4.122-15.909 1.11-2.455-0.71-5.557-3.426-3.526-3.257 1.406-5.98 3.703-8.824 5.762zm12.09-18.103c-3.325-0.175-5.063 5.136-1.905 6.589 2.565 1.041 5.355-1.564 4.725-4.166-0.19-1.355-1.42-2.468-2.82-2.423z"/>
 </g>
</svg>
